svgs/sharp-light/sim-card.svg

<svg xmlns="http://www.w3.org/2000/svg" viewBox="0 0 384 512"><!--! Font Awesome Pro 6.6.0 by @fontawesome - https://fontawesome.com License - https://fontawesome.com/license (Commercial License) Copyright 2024 Fonticons, Inc. --><path d="M32 32l0 448 320 0 0-338.7L242.7 32 32 32zM256 0L384 128l0 352 0 32-32 0L32 512 0 512l0-32L0 32 0 0 32 0 256 0zM64 280l0-56 0-32 32 0 64 0 16 0 16 0 40 0 56 0 32 0 0 32 0 56 0 80 0 56 0 32-32 0-64 0-16 0-16 0-96 0-32 0 0-32 0-56 0-80zm32 96l0 40 96 0 0-40-40 0-56 0zm192 0l-64 0 0 40 64 0 0-40zm-80-32l80 0 0-48-56 0-56 0-80 0 0 48 56 0 56 0zm80-120l-56 0-40 0 0 40 40 0 56 0 0-40zm-128 0l-64 0 0 40 64 0 0-40z"/></svg>

<svg xmlns="http://www.w3.org/2000/svg" viewBox="0 0 384 512"><!--! Font Awesome Pro 6.4.2 by @fontawesome - https://fontawesome.com License - https://fontawesome.com/license (Commercial License) Copyright 2023 Fonticons, Inc. --><path d="M32 32V480H352V141.3L242.7 32H32zM256 0L384 128V480v32H352 32 0V480 32 0H32 256zM64 280V224 192H96h64 16 16 40 56 32v32 56 80 56 32H288 224 208 192 96 64V416 360 280zm32 96v40h96V376H152 96zm192 0H224v40h64V376zm-80-32h80V296H232 176 96v48h56 56zm80-120H232 192v40h40 56V224zm-128 0H96v40h64V224z"/></svg>
